images/zhuyin/30.svg

<svg width="50" height="50" viewBox="0 0 50 50" fill="none" xmlns="http://www.w3.org/2000/svg">
<path d="M22.9375 14.9375C23.125 14.9375 23.4219 15.1016 23.8281 15.4297C24.2344 15.7266 24.4375 16 24.4375 16.25C24.4375 16.4844 24.3516 16.7266 24.1797 16.9766C24.0391 17.2578 23.9688 17.5469 23.9688 17.8438C23.9688 19.6719 25.1562 22.3438 27.5312 25.8594C29.7812 29.2188 31.7812 31.1875 33.5312 31.7656C34.0312 31.9375 34.2812 32.1484 34.2812 32.3984C34.2812 32.5547 33.9375 32.7969 33.25 33.125C32.5625 33.4375 32.0312 33.5938 31.6562 33.5938C31.2188 33.5938 30.4766 33.0078 29.4297 31.8359C28.0234 30.2891 26.6797 28.2812 25.3984 25.8125C24.1172 23.3906 23.2734 21.0781 22.8672 18.875C22.6641 17.625 22.4375 17 22.1875 17C21.9375 17 20.8984 17.5156 19.0703 18.5469C18.4453 18.8906 17.9531 19.0625 17.5938 19.0625C17.2656 19.0625 16.8672 18.8828 16.3984 18.5234C15.9453 18.1953 15.7188 17.9375 15.7188 17.75C15.7188 17.5781 16.2969 17.4141 17.4531 17.2578C18.875 17.0391 20.0312 16.7266 20.9219 16.3203C21.4844 16.0859 21.9141 15.8203 22.2109 15.5234C22.4922 15.1328 22.7344 14.9375 22.9375 14.9375Z" fill="#333333"/>
<path d="M23.8281 15.4297L23.514 15.8187L23.5234 15.8263L23.5331 15.8334L23.8281 15.4297ZM24.1797 16.9766L23.7677 16.6933L23.748 16.7219L23.7325 16.753L24.1797 16.9766ZM27.5312 25.8594L27.9467 25.5811L27.9456 25.5795L27.5312 25.8594ZM33.5312 31.7656L33.6938 31.2927L33.6881 31.2909L33.5312 31.7656ZM33.25 33.125L33.4569 33.5803L33.4654 33.5762L33.25 33.125ZM29.4297 31.8359L29.8026 31.5028L29.7997 31.4996L29.4297 31.8359ZM25.3984 25.8125L25.8422 25.5822L25.8404 25.5787L25.3984 25.8125ZM22.8672 18.875L22.3735 18.9552L22.3755 18.9657L22.8672 18.875ZM19.0703 18.5469L19.3113 18.985L19.316 18.9824L19.0703 18.5469ZM16.3984 18.5234L16.7028 18.1265L16.6917 18.1185L16.3984 18.5234ZM17.4531 17.2578L17.5201 17.7534L17.5292 17.752L17.4531 17.2578ZM20.9219 16.3203L20.7296 15.8588L20.7219 15.862L20.7144 15.8654L20.9219 16.3203ZM22.2109 15.5234L22.5645 15.877L22.5931 15.8484L22.6167 15.8156L22.2109 15.5234ZM22.9375 15.4375C22.903 15.4375 22.9335 15.4288 23.0589 15.4982C23.1722 15.5607 23.3228 15.6642 23.514 15.8187L24.1423 15.0407C23.9272 14.867 23.7263 14.7244 23.5426 14.6229C23.3712 14.5282 23.1595 14.4375 22.9375 14.4375V15.4375ZM23.5331 15.8334C23.7131 15.9649 23.8228 16.0735 23.8838 16.1556C23.9442 16.2369 23.9375 16.2653 23.9375 16.25H24.9375C24.9375 15.9847 24.8293 15.7514 24.6865 15.5593C24.5444 15.3679 24.3494 15.1913 24.1231 15.026L23.5331 15.8334ZM23.9375 16.25C23.9375 16.3572 23.899 16.5023 23.7677 16.6933L24.5917 17.2598C24.8041 16.9509 24.9375 16.6115 24.9375 16.25H23.9375ZM23.7325 16.753C23.5592 17.0994 23.4688 17.4647 23.4688 17.8438H24.4688C24.4688 17.6291 24.5189 17.4162 24.6269 17.2002L23.7325 16.753ZM23.4688 17.8438C23.4688 18.8572 23.7954 20.0559 24.4025 21.4218C25.0121 22.7936 25.9196 24.367 27.1169 26.1393L27.9456 25.5795C26.7679 23.8362 25.8941 22.3158 25.3163 21.0157C24.7359 19.7097 24.4688 18.6584 24.4688 17.8438H23.4688ZM27.1158 26.1376C28.2522 27.8343 29.3358 29.1958 30.368 30.2118C31.3967 31.2244 32.3984 31.918 33.3744 32.2404L33.6881 31.2909C32.9141 31.0352 32.0408 30.4553 31.0695 29.4991C30.1017 28.5464 29.0603 27.2438 27.9467 25.5811L27.1158 26.1376ZM33.3687 32.2385C33.5918 32.3152 33.7137 32.3862 33.7713 32.4349C33.8209 32.4767 33.7812 32.4633 33.7812 32.3984H34.7812C34.7812 32.0836 34.6166 31.8397 34.4162 31.6706C34.2238 31.5083 33.9707 31.388 33.6938 31.2928L33.3687 32.2385ZM33.7812 32.3984C33.7812 32.259 33.8522 32.1889 33.8382 32.2051C33.833 32.2112 33.8053 32.2393 33.7355 32.2885C33.598 32.3854 33.3699 32.5138 33.0346 32.6738L33.4654 33.5762C33.8176 33.4081 34.1052 33.2513 34.3114 33.106C34.4134 33.0341 34.5147 32.9519 34.5954 32.8584C34.6673 32.775 34.7812 32.616 34.7812 32.3984H33.7812ZM33.0431 32.6698C32.3679 32.9767 31.9186 33.0938 31.6562 33.0938V34.0938C32.1439 34.0938 32.7571 33.8983 33.4569 33.5802L33.0431 32.6698ZM31.6562 33.0938C31.6568 33.0938 31.6441 33.0937 31.615 33.0855C31.586 33.0772 31.5458 33.0621 31.4934 33.0361C31.3871 32.9833 31.2504 32.8953 31.0813 32.7619C30.7428 32.4946 30.3176 32.0793 29.8026 31.5028L29.0568 32.169C29.5887 32.7644 30.0579 33.228 30.4617 33.5467C30.6637 33.7062 30.86 33.838 31.0486 33.9317C31.2332 34.0234 31.4406 34.0938 31.6562 34.0938V33.0938ZM29.7997 31.4996C28.4303 29.9933 27.1097 28.0243 25.8422 25.5822L24.9546 26.0428C26.2497 28.5382 27.6166 30.5849 29.0597 32.1723L29.7997 31.4996ZM25.8404 25.5787C24.5778 23.1921 23.7541 20.9278 23.3589 18.7843L22.3755 18.9657C22.7927 21.2284 23.6566 23.5892 24.9565 26.0463L25.8404 25.5787ZM23.3607 18.7948C23.2578 18.1613 23.1445 17.6556 23.015 17.2984C22.9513 17.1225 22.8725 16.9508 22.7682 16.814C22.6689 16.6838 22.4784 16.5 22.1875 16.5V17.5C22.0216 17.5 21.9532 17.3944 21.973 17.4204C21.9878 17.4398 22.0253 17.5025 22.0749 17.6391C22.1719 17.9069 22.2735 18.3387 22.3737 18.9552L23.3607 18.7948ZM22.1875 16.5C22.0851 16.5 21.9876 16.5238 21.9183 16.5437C21.8407 16.5661 21.7557 16.5967 21.6664 16.6324C21.4874 16.704 21.2634 16.8074 20.9984 16.9388C20.4671 17.2025 19.7413 17.5943 18.8247 18.1114L19.316 18.9824C20.2274 18.4682 20.9352 18.0866 21.443 17.8346C21.6975 17.7083 21.8945 17.6182 22.0377 17.5609C22.1096 17.5322 22.161 17.5145 22.1952 17.5046C22.2378 17.4924 22.2274 17.5 22.1875 17.5V16.5ZM18.8294 18.1088C18.2189 18.4445 17.8203 18.5625 17.5938 18.5625V19.5625C18.0859 19.5625 18.6718 19.3367 19.3113 18.985L18.8294 18.1088ZM17.5938 18.5625C17.4339 18.5625 17.1457 18.4663 16.7027 18.1266L16.0942 18.9202C16.5887 19.2993 17.0974 19.5625 17.5938 19.5625V18.5625ZM16.6917 18.1185C16.479 17.9644 16.3425 17.843 16.2643 17.7539C16.2257 17.7101 16.2107 17.6846 16.2069 17.6771C16.2029 17.6693 16.2188 17.6963 16.2188 17.75H15.2188C15.2188 18.0321 15.3789 18.2613 15.5131 18.414C15.6614 18.5828 15.8648 18.7543 16.1052 18.9284L16.6917 18.1185ZM16.2188 17.75C16.2188 18.0026 16.0201 18.0887 16.0784 18.0549C16.0967 18.0442 16.158 18.0162 16.2888 17.9791C16.5428 17.907 16.9479 17.8306 17.5201 17.7533L17.3862 16.7623C16.8021 16.8413 16.34 16.925 16.0158 17.017C15.8576 17.0619 15.7021 17.1169 15.5759 17.1902C15.4897 17.2404 15.2188 17.4114 15.2188 17.75H16.2188ZM17.5292 17.752C18.9773 17.5292 20.1823 17.2072 21.1294 16.7752L20.7144 15.8654C19.8802 16.2459 18.7727 16.5489 17.3771 16.7636L17.5292 17.752ZM21.1142 16.7819C21.712 16.5327 22.2056 16.2359 22.5645 15.877L21.8574 15.1699C21.6226 15.4047 21.2567 15.6391 20.7296 15.8588L21.1142 16.7819ZM22.6167 15.8156C22.7438 15.6391 22.8447 15.5318 22.9174 15.4732C22.9945 15.411 22.9969 15.4375 22.9375 15.4375V14.4375C22.6749 14.4375 22.4547 14.5617 22.2896 14.6948C22.1202 14.8314 21.9593 15.0172 21.8052 15.2313L22.6167 15.8156Z" fill="#333333"/>
</svg>

<svg xmlns="http://www.w3.org/2000/svg" width="50" height="50" fill="none"><path fill="#333" d="M22.938 14.938c.187 0 .484.164.89.492.406.297.61.57.61.82 0 .234-.086.477-.258.727-.14.28-.211.57-.211.867 0 1.828 1.187 4.5 3.562 8.015 2.25 3.36 4.25 5.328 6 5.907.5.172.75.382.75.632 0 .157-.343.399-1.031.727-.688.313-1.219.469-1.594.469-.437 0-1.18-.586-2.226-1.758-1.407-1.547-2.75-3.555-4.032-6.023-1.28-2.422-2.125-4.735-2.53-6.938-.204-1.25-.43-1.875-.68-1.875-.25 0-1.29.516-3.118 1.547-.625.344-1.117.515-1.476.515-.328 0-.727-.18-1.196-.539-.453-.328-.68-.585-.68-.773 0-.172.579-.336 1.735-.492 1.422-.219 2.578-.531 3.469-.938.562-.234.992-.5 1.289-.797.281-.39.523-.585.727-.585Z"/><path fill="#333" d="m23.828 15.43-.314.389.01.007.01.007.294-.403Zm.352 1.547-.412-.284-.02.029-.015.031.447.224Zm3.351 8.882.416-.278-.001-.002-.415.28Zm6 5.907.163-.473-.006-.002-.157.475Zm-.281 1.359.207.455.008-.004-.215-.451Zm-3.82-1.29.373-.332-.003-.003-.37.336Zm-4.032-6.023.444-.23-.002-.003-.442.233Zm-2.53-6.937-.494.08.002.01.491-.09Zm-3.798-.328.241.438.005-.003-.246-.435Zm-2.672-.024.305-.396-.011-.008-.294.404Zm1.055-1.265.067.495.01-.001-.077-.494Zm3.469-.938-.192-.461-.008.003-.008.003.208.455Zm1.289-.797.354.354.028-.029.024-.032-.406-.293Zm.727-.085c-.035 0-.005-.01.12.06.114.063.265.166.456.32l.628-.777a4.3 4.3 0 0 0-.6-.418c-.17-.095-.383-.185-.605-.185v1Zm.595.395c.18.132.29.24.35.323.061.08.055.11.055.094h1a1.16 1.16 0 0 0-.252-.69 2.62 2.62 0 0 0-.563-.534l-.59.807Zm.404.417c0 .107-.038.252-.17.443l.825.567c.212-.31.346-.649.346-1.01h-1Zm-.204.503a2.416 2.416 0 0 0-.264 1.09h1c0-.214.05-.427.158-.643l-.894-.447Zm-.264 1.09c0 1.014.326 2.213.933 3.579.61 1.372 1.518 2.945 2.715 4.717l.829-.56c-1.178-1.743-2.052-3.263-2.63-4.563-.58-1.306-.847-2.358-.847-3.172h-1Zm3.647 8.295c1.136 1.696 2.22 3.058 3.252 4.074 1.029 1.012 2.03 1.706 3.006 2.028l.314-.95c-.774-.255-1.647-.835-2.619-1.79-.967-.954-2.009-2.256-3.122-3.919l-.831.557Zm6.253 6.1c.223.077.345.148.402.197.05.042.01.028.01-.037h1c0-.314-.164-.558-.365-.727-.192-.163-.445-.283-.722-.378l-.325.946Zm.412.16c0-.139.071-.21.057-.193a.65.65 0 0 1-.102.084 5.146 5.146 0 0 1-.701.385l.43.902c.353-.168.64-.325.846-.47.102-.072.204-.154.284-.248a.71.71 0 0 0 .186-.46h-1Zm-.738.272c-.675.307-1.124.424-1.387.424v1c.488 0 1.101-.196 1.8-.514l-.413-.91Zm-1.387.424s-.012 0-.041-.008a.738.738 0 0 1-.122-.05 2.48 2.48 0 0 1-.412-.274c-.338-.267-.763-.683-1.278-1.26l-.746.667c.532.595 1 1.059 1.405 1.378.202.16.398.291.587.385.184.091.392.162.607.162v-1ZM29.8 31.5c-1.37-1.507-2.69-3.476-3.958-5.918l-.887.46c1.295 2.496 2.662 4.543 4.105 6.13l.74-.672Zm-3.96-5.921c-1.262-2.387-2.086-4.651-2.481-6.795l-.984.182c.418 2.262 1.282 4.623 2.581 7.08l.884-.467Zm-2.48-6.784c-.102-.634-.215-1.14-.345-1.497a1.836 1.836 0 0 0-.247-.484c-.1-.13-.29-.314-.58-.314v1c-.166 0-.235-.106-.215-.08.015.02.052.082.102.22.097.267.198.699.299 1.315l.987-.16ZM22.189 16.5c-.103 0-.2.024-.27.044a2.742 2.742 0 0 0-.252.088 9.627 9.627 0 0 0-.668.307 49.74 49.74 0 0 0-2.173 1.172l.491.871c.911-.514 1.62-.895 2.127-1.147.255-.127.451-.217.595-.274.072-.029.123-.046.157-.056.043-.013.032-.005-.008-.005v-1Zm-3.359 1.609c-.61.335-1.009.453-1.235.453v1c.492 0 1.078-.225 1.717-.577l-.482-.876Zm-1.235.453c-.16 0-.448-.096-.891-.435l-.609.793c.495.38 1.003.642 1.5.642v-1Zm-.902-.444a2.684 2.684 0 0 1-.428-.364.424.424 0 0 1-.057-.077c-.004-.008.012.02.012.073h-1c0 .282.16.511.294.664.148.169.352.34.592.514l.587-.81Zm-.473-.368c0 .253-.199.339-.14.305.018-.01.079-.039.21-.076.254-.072.659-.148 1.231-.226l-.134-.99c-.584.078-1.046.162-1.37.254-.158.045-.314.1-.44.173-.086.05-.357.221-.357.56h1Zm1.31.002c1.448-.223 2.653-.545 3.6-.977l-.415-.91c-.834.38-1.941.684-3.337.899l.152.988Zm3.585-.97c.598-.25 1.092-.546 1.45-.905l-.707-.707c-.234.235-.6.47-1.127.689l.384.923Zm1.503-.966c.127-.177.228-.284.3-.343.077-.062.08-.036.02-.036v-1c-.262 0-.482.125-.647.258-.17.136-.33.322-.485.536l.812.585Z"/></svg>
